build/img/bg-section1.svg

<svg height="0" width="0"><defs><clipPath id="svgPath-bg-section"><path fill="#FFF" stroke="#000" stroke-width="1.579" stroke-miterlimit="10" d="M0 0h769v174.925c-90-31-128.698 13.208-225 .018 0 0-56.247 2.75-114.927-.018-58.681-2.768-41.302-9.229-81.25-1.661s-46.966 4.458-85.538 1.661c-49.607 1.599-57.628-3.12-76.285-4.982 0 0-69.452 6.136-114 5-28.176-.719-72-5-72-5V0z"/></clipPath></defs></svg>

<svg height="0" width="0">
    <defs>
        <clipPath id="svgPath-bg-section">
            <path fill="#FFFFFF" stroke="#000000" stroke-width="1.5794" stroke-miterlimit="10" d="M0 0C0 0 225.736 2.57767e-05 262.285 2.67029e-05C298.834 2.76291e-05 296.207 1.59145e-05 350.08 2.6226e-05C403.953 3.65376e-05 405.881 1.50179e-05 443.493 2.6226e-05C481.104 3.74342e-05 769 2.6226e-05 769 2.6226e-05C769 91.5 769 155.425 769 174.925C679 143.925 640.302 188.133 544 174.943C544 174.943 487.753 177.693 429.073 174.925C370.392 172.157 387.771 165.696 347.823 173.264C307.875 180.832 300.857 177.722 262.285 174.925C212.678 176.524 204.657 171.805 186 169.943C186 169.943 116.548 176.079 72 174.943C43.8237 174.224 0 169.943 0 169.943V0Z"/>
        </clipPath>
    </defs>
</svg>
